!!!OTL: Cailian diao
!!!ARE: Asia, China,ÿHunan
!! Hanzu minge gailun
!!!SCT: C1721
!!!YEM: Copyright 1995, estate of Helmut Schaffrath.
**kern
*ICvox
*Ivox
*M4/4
*k[f#c#g#]
*A:
{8.f#
16a
8.a
16b
8cc#
8cc#
8ee
8ff#
=1
8cc#
8a
8cc#
8ee
4f#
8c#
8r}
=2
{8a
8f#
8f#
8a
8f#
8f#
8c#
8e
=3
8a
8a
8cc#
8ee
4f#
8c#
8r}
=4
{8cc#
8cc#
8.ee
16ff#
8cc#
8cc#
8f#
8r
=5
8.a
16cc#
8f#
8a
8cc#
8cc#
8ee
8ff#}
=6
{4ff#
4cc#
8cc#
8cc#
8f#
8a
=7
8.cc#
16a
16cc#
16ee
8f#
8f#
8f#
8c#
8r}
=8
{8.cc#
16ee
8cc#
8cc#
8cc#
8cc#
8ee
8ff#
=9
8.cc#
16a
16cc#
16ee
8f#
8f#
8f#
4c#}
=10
{8cc#
8ee
4cc#
4ee
4ff#
=11
8a
8a
8.cc#
16a
4f#
8c#
8r}
=12
{8f#
8ee
2cc#
16f#
16cc#
8a
=13
8a
4a
8f#
2e}
==
!!!AGN: Xiaodiao. Fuqi cailian
!!!ONB: ESAC (Essen Associative Code) Database: ZHEN
!!!AMT: simple quadruple
!!!AIN: vox
!!!EED: Helmut Schaffrath
!!!EEV: 1.0
*-
